assets/icons/qvision/notes.svg

<svg xmlns="http://www.w3.org/2000/svg" height="24" viewBox="0 0 24 24" width="24"><path d="M0 0h24v24H0V0z" fill="none"/><path d="M3 18h12v-2H3v2zM3 6v2h18V6H3zm0 7h18v-2H3v2z"/></svg>

<svg width="24" height="24" viewBox="0 0 24 24" fill="none" xmlns="http://www.w3.org/2000/svg">
<g clip-path="url(#clip0_147_2717)">
<path d="M3 18H15V16H3V18ZM3 6V8H21V6H3ZM3 13H21V11H3V13Z" fill="#323232"/>
</g>
<defs>
<clipPath id="clip0_147_2717">
<rect width="24" height="24" fill="white"/>
</clipPath>
</defs>
</svg>
